X:1
T:Pour presenter
T:Pour presenter
T:Jacobus Clemens non Papa
C:Jacobus Clemens non Papa
%%score [ 1 [ 2 3 ] 4 ]
L:1/8
Q:1/4=80
M:4/4
K:F
V:1 treble nm="Superius" snm="S"
V:2 treble-8 nm="Tenor 1" snm="T 1"
V:3 treble-8 nm="Tenor 2" snm="T 2"
V:4 bass nm="Bassus" snm="B"
V:1
 F8 | G4 F4 | B2 B2 B2 B2 | A2 G2 F2 F2 | E4 z2 F2- | F2 G2 F2 G2 | A2 B4 B2 | B4 A2 G2- | %8
w: Pour|pre- sen-|ter a vous tous-|jours- _ _ loy|al, os-|* tant de mon|cueur la tris-|tes- se fa-|
 GF F4 E2 | F4 z2 F2 | F6 F2 | E2 E2 D2 B2- | B2 A2 G2 F2 | G4 F4 | z2 F2 G2 A2 | B2 A2 z2 B2 | %16
w: * ci- eu- *|se, lhon-|neur y|con- tre- dict mais|_ a- mour con-|sen- te,|je ne re-|fu- se de|
 B2 A2 G2 F2 | B3 A G2 F2 | E2 F4 E2 | F8- | F8 | z2 B2 B2 A2 | B4 F2 F2 | G2 B2 B2 A2 | G4 G2 G2 | %25
w: vous es- tre'a- mou-|reu- * * *||se,|_|tant que mon|a- me, du|corps se- ra con-|ten- te, en|
 c3 B A2 G2 | F6 D2 | E2 F4 E2 | F4 C4- | C8 | z2 c2 c2 c2 | A3 G F2 A2 | A2 G2 F2 EF | %33
w: trop de- lais- sant|a- bu-|ser ma sim-|ples- se,|_|ser- van- te|suis _ _ ren-|du a vos- tre _|
 GA G3 F F2- | F2 E2 F4 | z2 c2 c2 c2 | A3 G F2 F2 | B2 A2 G2 F2 | G8 | F2 A4 G2- | G2 F4 E2 | %41
w: _ _ _ no- bles-|* * se,|ser- van- te|suis _ _ ren-|du a vos- tre|no|bles- * *||
 F8 |] %42
w: se.|
V:2
 c8 | e4 d4 | f2 f2 g2 g2 |"^b" fedc d2 c2 | c4 z2 d2- | d2 B2 d3 e | f2 f4 g2 | f4 f2 d2 | %8
w: Pour|pre- sen-|ter a vous tous-|jours _ _ _ _ loy-|al, os-|* tant de mon|cueur la tris-|tes- se fa-|
"^b" e2 c2 c4 | z2 c2 d4- | d2 d2 c2 B2 | c4 F2 f2- | f2 f2 e2 d2 | d2 c2 d4 | z2 d2 e2 f2 | %15
w: ci- eu- se,|lhon- neur|_ y con- tre|dict mais a-|* mour con- *|sen- * te,|je ne re-|
 d2 f2 z2 f2 | f2 f2 e2 c2 | f3 e dc d2 | c3 B c4 | A2 d2 d2 c2 | d4 c2 c2 | d2 B2 f4 | d4 z2 c2 | %23
w: fu- se de|vous es- tre'a- mou-|reu- * * * *||se, tant que mon|a- me, tant-|que mon a-|me, du|
 d2 B2 f2 f2 | d4 e4- | e8 | z2 d2 d2 B2 | c2 d2 c3 B | A2 F3 G AF | G4 A4 | z2 F2 c2 f2 | %31
w: corps se- ra con-|ten- te,|_|en trop de-|lais- sant a- bu-|ser ma sim- ples- *|* se,|ser- van- te|
 f2 e2 d2 cB | c4 z2 G2- | G2 G2 A2 B2 | c4 A4 | c2 c2 c2 A2- | AG F2 z2 f2 | f2 f2 d3 c | %38
w: suis ren- _ _ _|du a|_ vos- tre bo-|bles- se,|ser- van- te suis|_ ren du,- ser-|van- te suis ren-|
 B2 B2 _e4 | d2 cB A2 c2 | d4 c4 | A8 |] %42
w: du, a vos-|tre no- * bles- *||se.|
V:3
 F8 | c4 A4 | d2 d2 _e3 d | c2 B2 A2 A2 | G4 z2 B2- | B2 G2 A2 B2 | c2 d4 d2 | d4 c2 B2 | %8
w: Pour|pre- sen-|ter a vous- _|_ tous- jour loy-|al, os-|* tant de mon|cueur la tris-|tes- se fa-|
 c2 A2 G4 | F2 A2 B4 | z2 B2 A2 F2 | G2 A2 B2 d2- | d2 c2 c2 F2 | B2 G2 A4- | A4 z2 d2 | B2 c2 d4 | %16
w: ci- eu- *|se, lhon- neur,|lhon- neur y|con- tre dict mais|_ a- mour con-|sen- * te,|_ je|ne re- fu-|
 c2 c2 c2 A2 | d3 c B2 A2 | G2 A2 G4 | F2 B2 B2 A2 | B4 F2 F2 | B2 d2 d2 c2 | B3 c de f2- | %23
w: se de vous es-|tre'a- * * mou-|reu- * *|se, tant que mon|a- me, tant|que mon a- me,|du _ _ _ corps|
 f2 _e2 d2 c2- | c2 B2 c4 | z2 G2 c3 B | A2 B2 A2 F2 | G2 A4 G2 | F2 A3 G F2- | F2 E2 F4- | %30
w: _ se- ra con|_ ten- te,|en trop _|_ de- lais- sant|ma sim- *|ples- * * *|* * se,|
 F4 z2 c2 | c2 c2 A3 G | F2 G2 A2 c2- | c2 B2 A2 F2 | G4 F4- | F4 z2 c2 | c2 c2 A3 G | F2 F2 B4- | %38
w: _ ser-|van- te suis _|_ rendu a vos-|* * tre no-|bles- se,|_ ser-|van te suis _|_ ren- du|
 B2 G2 c3 B | AG A2 F2 G2 | A2 B2 G4 | F8 |] %42
w: _ a vos- *|* * tre no- bles-||se.|
V:4
 F,8 | C,4 D,4 | B,,2 B,,2 _E,2 E,2 | F,2 G,2 D,2 F,2 | C,4 z2 B,,2- | B,,2 _E,2 D,2 G,2 | %6
w: Pour|pre- sen-|ter a vous tous|jours _ _ loy-|al, os-|* tant de mon|
 F,2 B,4 G,2 | B,4 F,2 G,2 |"^b" E,2 F,2 C,4 | F,4 z2 B,,2 | D,2 B,,2 F,2 D,2 | C,4 B,,4 | %12
w: cueur la tris-|tes- se fa-|ci- eu- *|se, lhon-|neur y con- tre-|dict mais|
 F,4 C,2 D,2 | _E,4 D,4- | D,4 z2 D,2 | G,2 F,2 B,4 | F,2 F,2 C,2 F,2 | B,,8 | C,8 | D,2 B,,2 F,4 | %20
w: a- mour con-|sen- te,|_ je|ne re- fu-|se de vous es-|tre'a-|mou-|reu- se, tant|
 B,,2 B,2 B,2 A,2 | B,4 F,2 F,2 | G,2 B,2 B,2 A,2 | G,4 F,4 | G,4 C,4 | z2 C,2 C,2 C,2 | %26
w: que mon a- me,|que- mon a-|me du corps se-|ra con-|ten- te,|en trop de-|
 D,2 B,,2 D,2 D,2 | C,2 F,4 C,2 | D,3 E, F,4 | C,4 z2 C2 | C2 C2 A,3 G, | F,2 C,2 D,2 F,2- | %32
w: lais- sant ma sim-|ples- * *||se, ser-|van te suis _|_ ren du a|
 F,2 E,2 D,2 C,D, | E,F,G,E, F,2 D,2 | C,4 z2 C2 | C2 C2 A,3 G, | F,2 F,2 F,2 F,2 | %37
w: _ vos- tre no- *|* * * * * bles-|se, ser-|van- te suis _|_ ren du a|
 D,3 C, B,,2 B,,2 |"^b" E,4 C,4 | D,2 F,4 E,2 | D,2 B,,2 C,4 | F,8 |] %42
w: vos- * * tre|no- *|bles- * *||se.|

